icon-themes/sifr_svg/cmd/lc_previousannotation.svg

<svg viewBox="0 0 24 24" xmlns="http://www.w3.org/2000/svg"><path d="m7 2c-.3 0-.55232.1-.75.3l-4.25 3.7v2c1.024162.9 3.225834 2.999219 4.25 3.7.19768.199219.45.3.75.3h.6.4v-1c0-.256804-.1-.527669-.3125-.7l-2.5703125-2.3h6.8828125v-2h-6.8828125l2.5703125-2.3c.2125-.1723213.3125-.44311.3125-.7v-1h-.4zm3 0v2h10v12h-10.359375l-2.640625 2v-2h-3v-4h-2v6h3v4h.5l4.859375-4h11.640625v-16z" fill="#555753"/></svg>

<svg xmlns="http://www.w3.org/2000/svg" viewBox="0 0 24 24">
  <path
     style="fill:#555753"
     d="M 7 2 C 6.7 2 6.44768 2.1 6.25 2.3 L 2 6 L 2 8 C 3.024162 8.9 5.225834 10.999219 6.25 11.7 C 6.44768 11.899219 6.7 12 7 12 L 7.6 12 L 8 12 L 8 11 C 8 10.743196 7.9 10.472331 7.6875 10.3 L 5.1171875 8 L 12 8 L 12 6 L 5.1171875 6 L 7.6875 3.7 C 7.9 3.5276787 8 3.25689 8 3 L 8 2 L 7.6 2 L 7 2 z M 10 2 L 10 4 L 20 4 L 20 16 L 9.640625 16 L 7 18 L 7 16 L 4 16 L 4 12 L 2 12 L 2 18 L 5 18 L 5 22 L 5.5 22 L 10.359375 18 L 22 18 L 22 2 L 10 2 z "
     />
</svg>
